!!!COM: Anon.
!!!OTL: Porque esta/s triste, o/ Juliana
!!!OTL: Romanceiro Folclorico do Brasil
!!!CNT: Brasil
!!!OCY: Brasil
!!!ODT: <1971///
!!!PSR: Irmaos Vitale
!!!PSP: Sao Paulo, Brasil
!!!PDT: 1948///
!!!PPE: Rossini Tavares de Lima
!!!PPG: page 12
!! Romance: Juliana E D. Jorge
!! Place: Lins, Sao Paulo, Brasil
**kern
*clefG2
*k[]
*M6/8
*MM116
=1-
8c
8e
8g
8c
8e
8g
=
4b
2a
=
8f
8d
8B
8B
8d
8f
=
4a
2g
=
8c
8e
8g
8c
8e
8g
=
4g
2f
=
8c
8e
8d
8c
8c
8g
=
2.c
==
*-
